X:23
T:Valentia Harbour
T:Amhr\'an na Leabhar
T:Valentia Lament
T:Cuan Bh\'eil Inse
R:slow air
Z:id:hn-slowair-23
M:3/4
L:1/8
K:Edor
E2 | E4F2 | G4A2 | B2e4- | e4f2 | e4d2 | B4A2 | Bcd4- | d4e2 |
E4F2 | G4F2 | GAB4- | B4BA | F4E2 | E4D2 | E6- | E4 :|
e2 | e4d2 | e4f2 | g4f2 | e4d2 | B4A2 | B4Bc |
d4c2 | d4c2 | d2e4 | e4d2 | B4A2 | F4A2 | B6- | B4E2 |
E4F2 | G4A2 | B2e4- | e4f2 | e4d2 | B4A2 | Bcd4- | d4e2 |
E4F2 | G4F2 | GAB4- | B4BA | F4E2 | E4D2 | E6- | E4 ||

